X:11006
T:Kid on the Mountain, The
R:Slipjig
C:Trad. O'Neills 1850
O:Ireland
Z:Paul Hardy's Session Tunebook 2022 (see www.paulhardy.net). Creative Commons cc by-nc-sa licenced.
M:9/8
L:1/8
Q:3/8=100
K:Em
"Em"E2E FEF G2 F|E2E BcA BGE|E>FE FEF G2 A|BAG "D"FAG FED:|
|:"G"BGB "D"AGF "G"G2 D|GAB dge "D7"dBA|"G"BGB "D"AGF "G"G2 A|"Em"BAG "D"FAG FED:|
|:"Em"gfg eBd e2 f|gfg efg "D7"afd|"Em"g2g eBd e2 a|bag "D"fag fed:|
|:"Em"eBB e2f g2f|eBB efg "D"afd|"Em"eBB e2f g2a|bag "D"fag fed:|
|:"G"edB "D7"dBA "G"G2D|"G"GAB dge "D7"dBA|"G"edB "D7"dBA "G"G2A|"Em"BAG "D"FAG FED:|"Em""_Out"E3-E3-E3|]

